X: 10027
T: ERIN'S WALTZ
C: Bob McQuillen 13 April 93
B: Bob's Note Book 10 #27
%R: waltz
Z: 2021 John Chambers <jc:trillian.mit.edu>
M: 3/8
L: 1/4
K: A
E \
| "A"ABc | "D"d3 | "A"c2E | Ace | "D"f3 | "A"e2E | ABc | "D"d3 | "A"c2e | ecA | "E"B3- | B2E |
| "A"ABc | "D"d3 | "A"c2E | Ace | "D"f3 | "A"e2E | ABc | "D"d3 | "A"cec | "E7"BAB | "A"A3- | A2 ||
|| c \
| "A"ece | a3 | e2f | ecA | "E"B3 | "A"c2c | ece | a3 | "E"e2e | "B7"fgf | "E7"e3- | e2c |
| "A"ece | "D"d3 | "A"c2c | ece | "D"f3 | "A"e2f | ece | a3 | ecA | "E7"BcB | "A"A3- | A2 |]
%%begintext align
%% Erin Tichy was
%% one of my favorite school girls, and now that
%% she's out of school and working in the area, she's
%% still pretty special. I always enjoy it when
%% she stops by for a chat - come again soon, Erin!
%%endtext

%%sep 1 1 500

%%sep 1 1 500

